packages/icons/src/SVG/chat-group-solid.svg

<svg width="12" height="12" viewBox="0 0 12 12" >
<path d="M0.112857 9.94554L0.433882 7.40351C0.169708 6.8495 0.0158076 6.23204 0.00114923 5.57881C-0.0543514 3.1055 1.90733 1.056 4.38268 1.00112C5.51123 0.976106 6.55172 1.37001 7.35512 2.04043C5.41002 2.52245 3.94862 4.25707 3.90154 6.35501C3.87036 7.74476 4.46634 9.00275 5.43084 9.85872C5.15713 9.91748 4.87393 9.95134 4.58367 9.95777C3.75695 9.9761 2.97749 9.76962 2.30387 9.39432L0.112857 9.94554Z" />
<path d="M11.9107 9.98946L11.6567 7.97824C11.8657 7.53991 11.9875 7.05137 11.9991 6.53454C12.043 4.57769 10.4909 2.95615 8.53248 2.91274C6.57402 2.86932 4.95077 4.42046 4.90686 6.37731C4.86295 8.33416 6.415 9.95569 8.37347 9.99911C9.02754 10.0136 9.64423 9.85026 10.1772 9.55334L11.9107 9.98946Z" />
</svg>

<!-- Generated by IcoMoon.io -->
<svg version="1.1" xmlns="http://www.w3.org/2000/svg" width="12" height="12" viewBox="0 0 12 12">
<title>chat-group-solid</title>
<path d="M0.113 9.946l0.321-2.542c-0.264-0.554-0.418-1.171-0.433-1.825-0.055-2.473 1.906-4.523 4.382-4.578 1.129-0.025 2.169 0.369 2.972 1.039-1.945 0.482-3.406 2.217-3.454 4.315-0.031 1.39 0.565 2.648 1.529 3.504-0.274 0.059-0.557 0.093-0.847 0.099-0.827 0.018-1.606-0.188-2.28-0.563l-2.191 0.551z"></path>
<path d="M11.911 9.989l-0.254-2.011c0.209-0.438 0.331-0.927 0.342-1.444 0.044-1.957-1.508-3.578-3.467-3.622s-3.582 1.508-3.626 3.465 1.508 3.578 3.467 3.622c0.654 0.014 1.271-0.149 1.804-0.446l1.733 0.436z"></path>
</svg>
